!!!COM: Palestrina, Giovanni Perluigi da
!!!OPR: Missa Dum complerentur
!!!OTL: Gloria
**kern	**kern	**kern	**kern	**kern	**kern
*Ibass	*Itenor	*Itenor	*Icalto	*Icalto	*Icant
!Bassus	!Tenor 2	!Tenor 1	!Altus 2	!Altus 1	!Cantus
*clefF4	*clefGv2	*clefGv2	*clefG2	*clefG2	*clefG2
*k[b-]	*k[b-]	*k[b-]	*k[b-]	*k[b-]	*k[b-]
*F:ion	*F:ion	*F:ion	*F:ion	*F:ion	*F:ion
*M4/2	*M4/2	*M4/2	*M4/2	*M4/2	*M4/2
=1	=1	=1	=1	=1	=1
0r	1.f	1.F	1.a	0r	1.cc
.	2f	2F	2a	.	2cc
=2	=2	=2	=2	=2	=2
0r	1e	1c	1g	0r	1cc
.	1f	1F	1a	.	1cc
=3	=3	=3	=3	=3	=3
0r	1f	1B-	1.b-	0r	1dd
.	2r	2F	.	.	1cc
.	[2F	[2f	4a	.	.
.	.	.	4g	.	.
=4	=4	=4	=4	=4	=4
0r	2F]	4f]	2a	0r	2.ff
.	.	4e	.	.	.
.	1f	4d	2a	.	.
.	.	4c	.	.	4ee
.	.	2B-	2b-	.	2dd
.	2f	2F	2a	.	2cc
=5	=5	=5	=5	=5	=5
0r	1d	2G	2g	0r	2b-
.	.	1B-	1f	.	1dd
.	2B-	.	.	.	.
.	2A	2c	2f	.	2cc
=6	=6	=6	=6	=6	=6
0r	2G	2d	2g	0r	2b-
.	2F	1f	2c	.	2a
.	2B-	.	2d	.	1g
.	2c	2e	2c	.	.
=7	=7	=7	=7	=7	=7
1r	1F	0f	1c	1r	2.a
.	.	.	.	.	4b-
1F	1A	.	2r	1a	[1cc
.	.	.	2f	.	.
=8	=8	=8	=8	=8	=8
1F	1c	0r	1f	1a	1cc]
1BB-	1d	.	1f	1b-	1r
=9	=9	=9	=9	=9	=9
2C	2.c	0r	1.e	1g	0r
2.c	.	.	.	.	.
.	4B-	.	.	.	.
.	4A	.	.	2.cc	.
4B-	4G	.	.	.	.
4A	[2F	.	[2f	.	.
4G	.	.	.	4b-	.
=10	=10	=10	=10	=10	=10
2F	2F]	0r	2f]	2a	0r
2E	2G	.	2c	2g	.
2D	2A	.	2d	2f	.
2C	[2c	.	2g	2e	.
=11	=11	=11	=11	=11	=11
1G	4c]	1r	1g	1d	1r
.	4B	.	.	.	.
.	2B	.	.	.	.
1C	2c	2r	1g	2e	2r
.	[2e	[2c	.	[2g	[2cc
=12	=12	=12	=12	=12	=12
0r	2e]	2c]	0r	2g]	2cc]
.	2e	2c	.	2g	2cc
.	1d	1G	.	1g	1b
=13	=13	=13	=13	=13	=13
0r	1e	1c	0r	1g	1cc
.	1f	2F	.	2cc	2.a
.	.	2f	.	2a	.
.	.	.	.	.	4b-
=14	=14	=14	=14	=14	=14
0r	2r	4f	0r	4a	2cc
.	.	4e	.	4g	.
.	2B-	4d	.	4f	2ff
.	.	4c	.	4e	.
.	4B-	[1B-	.	[1d	4ff
.	4c	.	.	.	4ee
.	4d	.	.	.	4dd
.	4e	.	.	.	4cc
=15	=15	=15	=15	=15	=15
0r	1.f	2B-]	0r	2d]	2b-
.	.	2A	.	2a	2cc
.	.	2B-	.	2d	2dd
.	2e	2c	.	2g	[2cc
=16	=16	=16	=16	=16	=16
1r	2d	1G	1r	1g	4cc]
.	.	.	.	.	8b
.	.	.	.	.	8a
.	2d	.	.	.	2b
[1F	2c	2r	[1a	2r	2cc
.	[2A	[2c	.	[2f	[2ff
=17	=17	=17	=17	=17	=17
2F]	2A]	2c]	2a]	2f]	2ff]
2F	2A	2c	2a	2f	2ff
1C	2c	1c	2g	1g	1ee
.	[2G	.	[2cc	.	.
=18	=18	=18	=18	=18	=18
1.G	4G]	0d	2cc]	1.g	1.dd
.	4A	.	.	.	.
.	4B-	.	4b-	.	.
.	4c	.	4a	.	.
.	2d	.	2b-	.	.
2G	2G	.	2b-	2g	2dd
=19	=19	=19	=19	=19	=19
2.D	2A	1d	0a	2.f	1dd
.	2.f	.	.	.	.
4E	.	.	.	4g	.
1F	.	1A	.	4a	4cc
.	8e	.	.	4b-	8dd
.	8d	.	.	.	8ee
.	2c	.	.	2cc	[2ff
=20	=20	=20	=20	=20	=20
0BB-	0d	0B-	0f	0b-	4ff]
.	.	.	.	.	4ee
.	.	.	.	.	4dd
.	.	.	.	.	4cc
.	.	.	.	.	1dd
=21	=21	=21	=21	=21	=21
1F	2r	1c	2f	2a	1cc
.	2.A	.	2.a	2.f	.
1r	.	1r	.	.	1r
.	4B-	.	4f	4d	.
.	2G	.	2g	2e	.
=22	=22	=22	=22	=22	=22
0r	1F	2r	4a	2f	0r
.	.	.	4g	.	.
.	.	2.f	4f	1a	.
.	.	.	4e	.	.
.	1r	.	2d	.	.
.	.	4d	.	.	.
.	.	2e	2c	2a	.
=23	=23	=23	=23	=23	=23
0r	0r	4f	2d	1a	1r
.	.	4e	.	.	.
.	.	4d	1f	.	.
.	.	4c	.	.	.
.	.	2B-	.	1g	2r
.	.	2c	4e	.	[2cc
.	.	.	4d	.	.
=24	=24	=24	=24	=24	=24
0r	1r	2A	2e	2a	4cc]
.	.	.	.	.	4a
.	.	2d	2f	2.f	2b-
.	2r	1c	1g	.	2.cc
.	.	.	.	8e	.
.	.	.	.	8d	.
.	[2c	.	.	2e	.
.	.	.	.	.	4b-
=25	=25	=25	=25	=25	=25
2.F	4c]	2F	1f	1f	4a
.	4c	.	.	.	4g
.	2d	2A	.	.	2f
4D	.	.	.	.	.
2E	4c	2G	2.cc	1r	2g
.	4B-	.	.	.	.
[2F	4A	2F	.	.	2a
.	4G	.	4b-	.	.
=26	=26	=26	=26	=26	=26
4F]	2F	1A	4a	0r	2cc
4E	.	.	4g	.	.
4D	2.f	.	4f	.	2.dd
4C	.	.	4e	.	.
2BB-	.	1B-	2.d	.	.
.	4e	.	.	.	4cc
2B-	[2d	.	.	.	2b-
.	.	.	4e	.	.
=27	=27	=27	=27	=27	=27
2F	4d]	1c	1f	0r	1a
.	4c	.	.	.	.
2F	1c	.	.	.	.
1G	.	1r	1d	.	[1g
.	2B	.	.	.	.
=28	=28	=28	=28	=28	=28
2C	1c	2r	1e	2.g	1g]
2.c	.	2.e	.	.	.
.	.	.	.	4e	.
.	1r	.	1r	2a	1r
4A	.	4f	.	.	.
2B-	.	2d	.	[2g	.
=29	=29	=29	=29	=29	=29
4c	0r	1e	2r	2g]	0r
4B-	.	.	.	.	.
4A	.	.	2.cc	1a	.
4G	.	.	.	.	.
2F	.	2f	.	.	.
.	.	.	4a	.	.
2G	.	2d	2b-	4g	.
.	.	.	.	4f	.
=30	=30	=30	=30	=30	=30
1A	0r	2c	4cc	4e	0r
.	.	.	4b-	4d	.
.	.	1f	4a	2c	.
.	.	.	4g	.	.
1B-	.	.	2f	1d	.
.	.	4e	2g	.	.
.	.	4d	.	.	.
=31	=31	=31	=31	=31	=31
0A	0r	2c#	2a	2e	0r
.	.	1d	2f	2a	.
.	.	.	1e	1a	.
.	.	2c#	.	.	.
=32	=32	=32	=32	=32	=32
1D	2r	1d	2f	1a	2r
.	2.d	.	2a	.	2.ff
1r	.	1r	2b-	1r	.
.	4B-	.	.	.	4dd
.	2c	.	2g	.	2ee
=33	=33	=33	=33	=33	=33
0r	4d	1r	1f	2r	4ff
.	4c	.	.	.	4ee
.	4B-	.	.	2.b-	4dd
.	4A	.	.	.	4cc
.	2G	2r	1r	.	2b-
.	.	.	.	4g	.
.	2F	[2f	.	2a	2cc
=34	=34	=34	=34	=34	=34
0r	2B-	4f]	0r	2b-	2dd
.	.	4d	.	.	.
.	2c	2e	.	2g	2.cc
.	1F	4f	.	1a	.
.	.	4e	.	.	4a
.	.	4d	.	.	[2dd
.	.	4c	.	.	.
=35	=35	=35	=35	=35	=35
0r	1G	2B-	0r	1g	2dd]
.	.	2e-	.	.	1cc
.	2G	2d	.	2.g	.
.	2G	2d	.	.	2b
.	.	.	.	4f	.
=36	=36	=36	=36	=36	=36
2r	2.A	2c	2r	4e	1cc
.	.	.	.	4d	.
2.F	.	2.A	2.a	2c	.
.	4B-	.	.	.	.
.	4c	.	.	1r	1r
4D	4d	4B-	4f	.	.
2E	2c	2G	2g	.	.
=37	=37	=37	=37	=37	=37
4F	1A	1.F	4a	2r	0r
4E	.	.	4g	.	.
4D	.	.	4f	2.f	.
4C	.	.	4e	.	.
2BB-	2B-	.	2d	.	.
.	.	.	.	4d	.
2C	2G	2c	4c	2e	.
.	.	.	4B-	.	.
=38	=38	=38	=38	=38	=38
1D	1F	0r	1A	4f	0r
.	.	.	.	4e	.
.	.	.	.	4d	.
.	.	.	.	4c	.
1E-	1G	.	2G	2B-	.
.	.	.	2g	2c	.
=39	=39	=39	=39	=39	=39
1.D	2.A	0r	1f	2d	0r
.	.	.	.	2d	.
.	4A	.	.	.	.
.	2A	.	2d	2f	.
2BB-	2B-	.	2d	2f	.
=40	=40	=40	=40	=40	=40
1F	1A	2r	1c	1f	1r
.	.	2.f	.	.	.
[1BB-	[1B-	.	2d	[1f	[1dd
.	.	4e	.	.	.
.	.	[2d	4B-	.	.
.	.	.	4c	.	.
=41	=41	=41	=41	=41	=41
1BB-]	1B-]	4d]	4d	1f]	1dd]
.	.	4c	4e	.	.
.	.	2B-	4f	.	.
.	.	.	4g	.	.
1F	1c	1A	2a	1f	1cc
.	.	.	[2f	.	.
=42	=42	=42	=42	=42	=42
0C	0c	0G	2f]	0g	0cc
.	.	.	4e	.	.
.	.	.	4d	.	.
.	.	.	1e	.	.
=43	=43	=43	=43	=43	=43
0F	1c	1F	1f	1a	1cc
.	2.f	2.A	1r	2r	2.cc
.	.	.	.	[2a	.
.	4f	4A	.	.	4cc
=44	=44	=44	=44	=44	=44
0r	2e	2A	0r	4a]	2cc
.	.	.	.	4a	.
.	2d	1d	.	2a	1ff
.	1A	.	.	2a	.
.	.	2c	.	2a	2ee
=45	=45	=45	=45	=45	=45
0r	0r	2B-	2.f	2b-	2dd
.	.	2A	.	2cc	2cc
.	.	.	4f	.	.
.	.	1B-	2f	2b-	1dd
.	.	.	[2b-	[2f	.
=46	=46	=46	=46	=46	=46
0r	2.c	1F	2b-]	2f]	2cc
.	.	.	2a	2f	2.cc
.	4c	.	.	.	.
.	2c	1r	2g	2e	.
.	.	.	.	.	4cc
.	[2f	.	2f	2d	2b
=47	=47	=47	=47	=47	=47
0r	2f]	0r	1g	2c	2cc
.	2e	.	.	2g	2cc
.	2d	.	2f	2a	2dd
.	2c	.	[2a	[2cc	2ee
=48	=48	=48	=48	=48	=48
0r	1d	1r	2a]	2cc]	1ff
.	.	.	2f	2b	.
.	1c	2r	1g	[1cc	1ee
.	.	[2c	.	.	.
=49	=49	=49	=49	=49	=49
2.F	0r	4c]	1f	1cc]	2.a
.	.	4c	.	.	.
.	.	2c	.	.	.
4F	.	.	.	.	4a
2F	.	4f	2r	1r	2a
.	.	4e	.	.	.
[2B-	.	4d	[2f	.	[2dd
.	.	4c	.	.	.
=50	=50	=50	=50	=50	=50
2B-]	0r	2B-	4f]	0r	2dd]
.	.	.	4f	.	.
2A	.	2c	2f	.	2cc
2G	.	2d	2g	.	2b-
2F	.	[2f	2c	.	2a
=51	=51	=51	=51	=51	=51
1G	1r	2f]	2B-	0r	1b-
.	.	2e	2G	.	.
[1F	2.c	[1f	1A	.	1a
.	4c	.	.	.	.
=52	=52	=52	=52	=52	=52
1F]	2c	1f]	2A	1r	2.cc
.	2.f	.	2.a	.	.
.	.	.	.	.	4cc
1r	.	1r	.	2.f	2cc
.	4e	.	4a	.	.
.	[2d	.	2a	.	[2ff
.	.	.	.	4f	.
=53	=53	=53	=53	=53	=53
0r	4d]	0r	1d	2f	4ff]
.	4c	.	.	.	4ee
.	4B-	.	.	1b-	4dd
.	4A	.	.	.	4cc
.	2G	.	2d	.	2b-
.	2F	.	[2f	2a	2cc
=54	=54	=54	=54	=54	=54
2.C	1.c	1r	2f]	1g	2r
.	.	.	2e	.	2.cc
4C	.	.	.	.	.
2C	.	2.c	2e	2r	.
.	.	.	.	.	4cc
[2F	2A	.	[2a	[2f	2cc
.	.	4c	.	.	.
=55	=55	=55	=55	=55	=55
4F]	1A	2c	4a]	2f]	2.ff
4E	.	.	4g	.	.
4D	.	1f	2a	2f	.
4C	.	.	.	.	4ee
2BB-	2r	.	4b-	1g	2dd
.	.	.	4a	.	.
2C	2c	2e	4g	.	2cc
.	.	.	4f	.	.
=56	=56	=56	=56	=56	=56
0G	2d	2d	0g	2r	2b
.	2e	2c	.	2.g	1cc
.	2d	1d	.	.	.
.	.	.	.	4f	.
.	2G	.	.	2d	2b
=57	=57	=57	=57	=57	=57
0C	0G	0c	0g	0e	0cc
=58	=58	=58	=58	=58	=58
0r	0r	0r	1r	0r	1cc
.	.	.	1f	.	1ff
=59	=59	=59	=59	=59	=59
0r	1r	0r	2a	0r	2ff
.	.	.	2b-	.	2dd
.	1c	.	1cc	.	1ee
=60	=60	=60	=60	=60	=60
0r	1f	1F	1.a	0r	2.cc
.	.	.	.	.	4b-
.	2f	2A	.	.	2cc
.	2d	2B-	[2g	.	2dd
=61	=61	=61	=61	=61	=61
0r	1e	1c	2g]	0r	2cc
.	.	.	2.cc	.	2g
.	2.c	2.A	.	.	2a
.	.	.	4b-	.	.
.	.	.	2a	.	[2cc
.	4d	4B-	.	.	.
=62	=62	=62	=62	=62	=62
0r	2e	2c	2g	0r	2cc]
.	1f	2d	2f	.	2b
.	.	1c	1g	.	[1cc
.	2e	.	.	.	.
=63	=63	=63	=63	=63	=63
1r	1f	1F	1a	1r	1cc]
[1F	[1f	[1A	2r	[1a	[1cc
.	.	.	4f	.	.
.	.	.	4g	.	.
=64	=64	=64	=64	=64	=64
1F]	1f]	1A]	4a	1a]	1cc]
.	.	.	4b-	.	.
.	.	.	2cc	.	.
1BB-	1d	1B-	1b-	1f	1dd
=65	=65	=65	=65	=65	=65
1F	1f	1.c	2a	1a	1cc
.	.	.	2f	.	.
1C	1e	.	[1g	2cc	1cc
.	.	[2G	.	[2cc	.
=66	=66	=66	=66	=66	=66
0G	0d	2G]	0g]	2cc]	1dd
.	.	2.g	.	4b	.
.	.	.	.	4a	.
.	.	.	.	1b	1gg
.	.	4f	.	.	.
.	.	2d	.	.	.
=67	=67	=67	=67	=67	=67
0C	1c	2.e	1g	0cc	0ee
.	.	4f	.	.	.
.	1c	1g	2r	.	.
.	.	.	2g	.	.
=68	=68	=68	=68	=68	=68
0r	1f	0r	4a	1r	1cc
.	.	.	4b-	.	.
.	.	.	4cc	.	.
.	.	.	4a	.	.
.	[1d	.	2b-	2r	1ff
.	.	.	2a	2f	.
=69	=69	=69	=69	=69	=69
0r	2d]	1r	2f	2a	2ff
.	2G	.	2.g	2b-	2dd
.	2c	2r	.	1cc	1ee
.	.	.	4e	.	.
.	2A	2c	[2a	.	.
=70	=70	=70	=70	=70	=70
0r	1d	1f	4a]	1a	4ff
.	.	.	4g	.	4ee
.	.	.	4f	.	4dd
.	.	.	4e	.	4cc
.	1B-	2f	2d	2.b-	1dd
.	.	2d	[2g	.	.
.	.	.	.	4a	.
=71	=71	=71	=71	=71	=71
1r	0c	2e	2g]	2g	0cc
.	.	2f	1f	2a	.
1C	.	2g	.	1g	.
.	.	[2c	2e	.	.
=72	=72	=72	=72	=72	=72
1F	2r	2c]	1f	2a	2.cc
.	2F	2c	.	1cc	.
.	.	.	.	.	4b-
2F	2A	1f	1r	.	4a
.	.	.	.	.	8b-
.	.	.	.	.	8cc
2D	2B-	.	.	4b-	2dd
.	.	.	.	4a	.
=73	=73	=73	=73	=73	=73
2E	2c	2e	0r	2g	1cc
2F	2A	2c	.	2a	.
[1G	2B	2e	.	[1g	1r
.	[2c	2e	.	.	.
=74	=74	=74	=74	=74	=74
1G]	2c]	1d	0r	1g]	0r
.	2B	.	.	.	.
1F	1c	1f	.	1a	.
=75	=75	=75	=75	=75	=75
1.C	1.c	1.e	1.cc	1.g	1.ee
2C	2c	2e	2cc	2g	2ee
=76	=76	=76	=76	=76	=76
1C	1c	2e	1cc	1g	1ee
.	.	1c	.	.	.
1r	[1F	.	[1a	[1cc	[1ff
.	.	2c	.	.	.
=77	=77	=77	=77	=77	=77
0r	2F]	1f	2a]	2cc]	2ff]
.	2F	.	2a	2cc	2ff
.	2F	2f	2a	2cc	2ff
.	2F	[2f	2a	2cc	2ff
=78	=78	=78	=78	=78	=78
1.BB-	[0B-	4f]	[0b-	[0f	[0dd
.	.	4e	.	.	.
.	.	4d	.	.	.
.	.	4c	.	.	.
.	.	4d	.	.	.
.	.	4c	.	.	.
2BB-	.	4B-	.	.	.
.	.	4A	.	.	.
=79	=79	=79	=79	=79	=79
2BB-	1B-]	2B-	1b-]	1f]	1dd]
2BB-	.	2F	.	.	.
1F	2c	2.A	1a	2f	[1cc
.	2f	.	.	4c	.
.	.	4B-	.	4d	.
=80	=80	=80	=80	=80	=80
1C	4e	2c	0g	4e	1cc]
.	4c	.	.	4f	.
.	2e	2G	.	4g	.
.	.	.	.	4a	.
1G	1d	1G	.	4b	1dd
.	.	.	.	2cc	.
.	.	.	.	4b	.
=81	=81	=81	=81	=81	=81
2C	1c	2r	2g	2cc	1ee
2C	.	2c	2e	2g	.
1F	2r	1c	1f	1a	2r
.	2F	.	.	.	2a
=82	=82	=82	=82	=82	=82
1F	1f	1c	2f	0a	1cc
.	.	.	2.cc	.	.
2r	1f	2r	.	.	1cc
.	.	.	4b-	.	.
2F	.	2f	2a	.	.
=83	=83	=83	=83	=83	=83
2G	2r	2e	2g	0r	0r
2B-	2d	2d	2f	.	.
4A	2e	4c	1a	.	.
4G	.	4B-	.	.	.
4F	2f	4A	.	.	.
4E	.	4G	.	.	.
=84	=84	=84	=84	=84	=84
1F	1c	2A	1a	0r	2r
.	.	1c	.	.	2cc
1D	2r	.	1f	.	2dd
.	2d	2B	.	.	2ff
=85	=85	=85	=85	=85	=85
1C	2e	1c	2r	1r	4ee
.	.	.	.	.	4dd
.	2g	.	2c	.	4cc
.	.	.	.	.	4b-
1r	2f	1r	2d	2r	2.a
.	2d	.	2f	2f	.
.	.	.	.	.	4b-
=86	=86	=86	=86	=86	=86
0r	2c	0r	2e	2g	2cc
.	2G	.	4d	2b-	2dd
.	.	.	4e	.	.
.	2A	.	4f	4a	2cc
.	.	.	4e	4g	.
.	2B-	.	4d	4f	[2dd
.	.	.	4c	4e	.
=87	=87	=87	=87	=87	=87
0r	2B-	0r	2B-	1f	2dd]
.	2A	.	2c	.	1cc
.	1G	.	1d	1g	.
.	.	.	.	.	2b
=88	=88	=88	=88	=88	=88
2r	2.A	1r	1c	2e	[0cc
1F	.	.	.	1a	.
.	4G	.	.	.	.
.	2F	2r	1r	.	.
2E	2G	[2c	.	2g	.
=89	=89	=89	=89	=89	=89
1F	2c	2c]	2.f	2a	1cc]
.	2c	2A	.	2cc	.
.	.	.	4e	.	.
2BB-	1f	1B-	2d	2b-	1dd
[2B-	.	.	2B-	[2f	.
=90	=90	=90	=90	=90	=90
2B-]	1f	2F	1c	4f]	1cc
.	.	.	.	4g	.
2A	.	2.f	.	2a	.
1B-	2r	.	2B-	1d	2dd
.	.	4e	.	.	.
.	[2B-	2d	[2f	.	2b-
=91	=91	=91	=91	=91	=91
1F	2B-]	1c	4f]	1.f	2cc
.	.	.	4g	.	.
.	2A	.	2a	.	2.ff
2r	1B-	4B-	1d	.	.
.	.	4c	.	.	4ee
[2B-	.	4d	.	2f	[2dd
.	.	4e	.	.	.
=92	=92	=92	=92	=92	=92
2B-]	1F	2f	2r	2.f	2dd]
2A	.	2c	1f	.	2.cc
.	.	.	.	4e	.
2B-	2B-	2d	.	2d	.
.	.	.	.	.	4b-
2BB-	2d	2d	2f	2B-	[2b-
=93	=93	=93	=93	=93	=93
0F	0c	2.f	2f	2c	2b-]
.	.	.	2c	2.f	4a
.	.	8e	.	.	4g
.	.	8d	.	.	.
.	.	2c	1f	.	1a
.	.	.	.	4e	.
.	.	[2F	.	2c	.
=94	=94	=94	=94	=94	=94
0BB-	2r	2F]	1f	0d	0b-
.	1B-	1f	.	.	.
.	.	.	2r	.	.
.	2B-	2d	[2f	.	.
=95	=95	=95	=95	=95	=95
2r	1B-	2.d	2f]	2r	1.dd
1B-	.	.	2d	1f	.
.	.	4e	.	.	.
.	1r	[1f	1d	.	.
2B-	.	.	.	2d	2dd
=96	=96	=96	=96	=96	=96
1B-	2r	1f]	1b-	1d	2dd
.	2f	.	.	.	2dd
1r	2f	1r	2a	1r	1cc
.	2e	.	2g	.	.
=97	=97	=97	=97	=97	=97
0r	4f	0r	4a	0r	2cc
.	4e	.	4g	.	.
.	4d	.	4f	.	2.dd
.	4c	.	4e	.	.
.	4B-	.	4d	.	.
.	4A	.	4e	.	4cc
.	4A	.	[2f	.	4cc
.	8G	.	.	.	8b-
.	8F	.	.	.	8a
=98	=98	=98	=98	=98	=98
1r	1G	1r	2f]	1r	1b-
.	.	.	2e	.	.
2r	1F	2r	1f	2r	1a
2c	.	2f	.	2a	.
=99	=99	=99	=99	=99	=99
2c	0r	2e	0r	1g	0r
2B	.	2d	.	.	.
4c	.	4e	.	2g	.
4B-	.	4d	.	.	.
4A	.	4c	.	[2a	.
4G	.	4B-	.	.	.
=100	=100	=100	=100	=100	=100
4F	0r	4A	0r	4a]	1r
4E	.	4B-	.	4g	.
4E	.	1c	.	4g	.
8D	.	.	.	8f	.
8C	.	.	.	8e	.
2D	.	.	.	2.f	2r
2D	.	2B	.	.	2ff
.	.	.	.	4g	.
=101	=101	=101	=101	=101	=101
1C	2r	1c	2r	2a	2ff
.	2c	.	2cc	2g	2ee
1r	2d	1r	2a	1f	4ff
.	.	.	.	.	4ee
.	2B-	.	2b-	.	4dd
.	.	.	.	.	4cc
=102	=102	=102	=102	=102	=102
0r	2d	2r	2f	0r	4b-
.	.	.	.	.	4a
.	2d	2f	2f	.	4a
.	.	.	.	.	8g
.	.	.	.	.	8f
.	1c	2f	2.cc	.	2g
.	.	2e	.	.	2g
.	.	.	4b-	.	.
=103	=103	=103	=103	=103	=103
0r	0f	4f	4a	0r	2a
.	.	4e	4g	.	.
.	.	4d	4f	.	2.dd
.	.	4c	4e	.	.
.	.	4B-	4d	.	.
.	.	4A	4e	.	4cc
.	.	4A	[2f	.	4cc
.	.	8G	.	.	8b-
.	.	8F	.	.	8a
=104	=104	=104	=104	=104	=104
1r	1B-	2G	2f]	1g	2b-
.	.	2G	2e	.	2b-
2r	1c	1F	1f	[1a	2a
2c	.	.	.	.	[2cc
=105	=105	=105	=105	=105	=105
1d	2r	1f	1r	2a]	2cc]
.	1f	.	.	2f	2b
1c	.	1g	2r	2r	1cc
.	2e	.	2g	[2c	.
=106	=106	=106	=106	=106	=106
2A	4f	1f	2a	2c]	0r
.	4e	.	.	.	.
1B-	4d	.	1f	2.d	.
.	4c	.	.	.	.
.	2B-	1r	.	.	.
.	.	.	.	4e	.
2A	2c	.	2a	[2f	.
=107	=107	=107	=107	=107	=107
1G	2d	1g	2b-	2f]	1r
.	2B-	.	2b-	2e	.
1F	1c	1a	2a	1f	1cc
.	.	.	[2cc	.	.
=108	=108	=108	=108	=108	=108
0r	0r	1g	2cc]	0r	1dd
.	.	.	2b-	.	.
.	.	2e	2g	.	1cc
.	.	[2f	[2a	.	.
=109	=109	=109	=109	=109	=109
0r	0r	2f]	4a]	0r	2a
.	.	.	4f	.	.
.	.	2e-	1g	.	1b-
.	.	2.d	.	.	.
.	.	.	[2f	.	2a
.	.	4c	.	.	.
=110	=110	=110	=110	=110	=110
1r	1r	2B-	2f]	2r	1g
.	.	2c	2e	2.cc	.
[1F	[1c	2A	1f	.	1f
.	.	.	.	4b-	.
.	.	[2F	.	4a	.
.	.	.	.	4g	.
=111	=111	=111	=111	=111	=111
1F]	1c]	4F]	0cc	1a	1ff
.	.	4G	.	.	.
.	.	4A	.	.	.
.	.	4B-	.	.	.
1C	1e	1c	.	1g	1ee
=112	=112	=112	=112	=112	=112
2.D	0f	2F	2a	4f	1dd
.	.	.	.	4g	.
.	.	1F	4f	4a	.
4E	.	.	4g	4b-	.
1F	.	.	4a	4a	1cc
.	.	.	4b-	4g	.
.	.	2A	2cc	4f	.
.	.	.	.	4e	.
=113	=113	=113	=113	=113	=113
0BB-	2.f	1B-	2.b-	4d	0dd
.	.	.	.	4c	.
.	.	.	.	2B-	.
.	4e	.	8a	.	.
.	.	.	8g	.	.
.	4d	1B-	[1f	1b-	.
.	4c	.	.	.	.
.	2B-	.	.	.	.
=114	=114	=114	=114	=114	=114
0F	1c	2r	0f]	1a	1cc
.	.	1F	.	.	.
.	1c	.	.	1a	2r
.	.	[2f	.	.	[2cc
=115	=115	=115	=115	=115	=115
0r	2.f	4f]	0r	1a	2cc]
.	.	4e	.	.	.
.	.	1d	.	.	1ff
.	4e	.	.	.	.
.	2d	.	.	1a	.
.	2e	2c	.	.	2ee
=116	=116	=116	=116	=116	=116
0r	2.f	1.B-	2r	2b-	1.dd
.	.	.	1f	2b-	.
.	4e	.	.	.	.
.	2d	.	.	[1f	.
.	2B-	2B-	[2b-	.	2dd
=117	=117	=117	=117	=117	=117
2r	1c	2F	2b-]	1f]	1cc
1F	.	2.c	4a	.	.
.	.	.	4g	.	.
.	1r	.	4a	1f	1r
.	.	8B-	4g	.	.
.	.	8c	.	.	.
[2B-	.	2d	4f	.	.
.	.	.	4e	.	.
=118	=118	=118	=118	=118	=118
2B-]	0r	2B-	2d	2g	0r
2A	.	2c	2e	2a	.
2G	.	2d	2g	2b-	.
2G	.	2e	2g	2b-	.
=119	=119	=119	=119	=119	=119
0F	1r	0f	2c	0a	0r
.	.	.	2cc	.	.
.	2r	.	4cc	.	.
.	.	.	4b-	.	.
.	2f	.	4a	.	.
.	.	.	4g	.	.
=120	=120	=120	=120	=120	=120
0r	4f	0r	2a	0r	2r
.	4e	.	.	.	.
.	4d	.	2a	.	2ff
.	4c	.	.	.	.
.	2d	.	2f	.	4ff
.	.	.	.	.	4ee
.	2d	.	2b-	.	4dd
.	.	.	.	.	4cc
=121	=121	=121	=121	=121	=121
0r	2B-	0r	4b-	0r	2dd
.	.	.	4a	.	.
.	2e-	.	4g	.	2b-
.	.	.	4f	.	.
.	4e-	.	2g	.	2b-
.	4d	.	.	.	.
.	4c	.	2a	.	2cc
.	4B-	.	.	.	.
=122	=122	=122	=122	=122	=122
0r	2c	0r	2g	1r	4cc
.	.	.	.	.	4b-
.	1d	.	2.f	.	4a
.	.	.	.	.	4g
.	.	.	.	2r	2a
.	.	.	4d	.	.
.	2B-	.	[2g	2b-	[2dd
=123	=123	=123	=123	=123	=123
0r	1d	1r	4g]	4b-	2dd]
.	.	.	4f	4a	.
.	.	.	1f	4g	2b-
.	.	.	.	4f	.
.	1c	2r	.	2g	1cc
.	.	2c	2e	2g	.
=124	=124	=124	=124	=124	=124
2r	4F	4c	0f	2a	1cc
.	4G	4B-	.	.	.
2F	4A	4A	.	2a	.
.	4B-	4G	.	.	.
4F	2c	2A	.	4a	2r
4E	.	.	.	4g	.
4D	[2d	2A	.	4f	2ff
4C	.	.	.	4e	.
=125	=125	=125	=125	=125	=125
2D	4d]	1F	0r	1f	4ff
.	4c	.	.	.	4ee
2D	2A	.	.	.	4dd
.	.	.	.	.	4cc
2BB-	1B-	2f	.	2.d	2dd
2B-	.	4f	.	.	2dd
.	.	4e	.	4e	.
=126	=126	=126	=126	=126	=126
4B-	0r	4d	0r	2f	2b-
4A	.	4c	.	.	.
4G	.	1d	.	2.g	2b-
4F	.	.	.	.	.
2G	.	.	.	.	2b-
.	.	.	.	4f	.
[2A	.	2c	.	4e	[2cc
.	.	.	.	4d	.
=127	=127	=127	=127	=127	=127
4A]	0r	2A	0r	2e	4cc]
4G	.	.	.	.	4b-
4F	.	1d	.	2.f	4a
4E	.	.	.	.	4g
2D	.	.	.	.	2a
.	.	.	.	4e	.
2A	.	[2c	.	2c	2f
=128	=128	=128	=128	=128	=128
1G	1r	2c]	2r	1d	1g
.	.	2B	2g	.	.
[1C	2r	1c	4g	1c	2.e
.	.	.	4f	.	.
.	2g	.	4e	.	.
.	.	.	4d	.	4f
=129	=129	=129	=129	=129	=129
1C]	4g	2c	2e	2r	1g
.	4f	.	.	.	.
.	4e	4c	2e	2cc	.
.	4d	4B-	.	.	.
2r	2e	4A	1c	4cc	1a
.	.	4G	.	4b-	.
2F	2c	[2A	.	4a	.
.	.	.	.	4g	.
=130	=130	=130	=130	=130	=130
4F	2c	2A]	1f	1a	2r
4E	.	.	.	.	.
4D	1d	2F	.	.	2ff
4C	.	.	.	.	.
2D	.	1F	2.f	2a	4ff
.	.	.	.	.	4ee
2D	2A	.	.	[2f	4dd
.	.	.	4e	.	4cc
=131	=131	=131	=131	=131	=131
1BB-	1B-	1f	4d	2f]	2dd
.	.	.	4c	.	.
.	.	.	2d	2.b-	2dd
1E-	[1G	1g	1e-	.	1b-
.	.	.	.	4a	.
.	.	.	.	4g	.
.	.	.	.	4f	.
=132	=132	=132	=132	=132	=132
1C	2G]	1G	1e-	1g	2.cc
.	2c	.	.	.	.
.	.	.	.	.	4b-
2.F	4c	[1A	1c	[1f	4a
.	4B-	.	.	.	4g
.	4A	.	.	.	2a
4E-	4G	.	.	.	.
=133	=133	=133	=133	=133	=133
4D	2A	1A]	2d	1f]	2f
4C	.	.	.	.	.
2D	1F	.	2.d	.	2.ff
1BB-	.	1B-	.	2.d	.
.	.	.	4e	.	4ee
.	2B-	.	4f	.	2dd
.	.	.	4g	4e	.
=134	=134	=134	=134	=134	=134
1F	2A	[0c	4a	2f	1cc
.	.	.	4g	.	.
.	2A	.	1f	2f	.
1C	1G	.	.	1g	1cc
.	.	.	2e	.	.
=135	=135	=135	=135	=135	=135
0F	0F	0c]	0f	0a	0cc
==	==	==	==	==	==
*-	*-	*-	*-	*-	*-
!!!CDT: 1525/^1526/-1594/2/2
!!!OCY: Italia
!!!AGN: Mass (Parody)
!!!AST: renaissance, vocal
!!!ASW: Motet 1569 (Palestrina)
!!!PWK: Masses, Book 8
!!!RNB: Cadence finals: C
!!!YOR: Le Opere Complete, v. 24, p. 117
!!!YOO: Rome, Italy: Fratelli Scalera
!!!END: 1992//
!!!EED: John Miller
!!!YEC: Copyright 2000, John Miller
!!!YEN: United States of America
!!!YEM: Rights to all derivative electronic formats reserved.
!!!YEM: Refer to licensing agreement for further details.
!!!YEM: This file must be accompanied by the licensing agreement.
!!!YEM: A copy of the licensing agreement may be found at http://www.music-cog.ohio-state.edu/HumdrumDatabases/Palestrina/license.txt
!!!EMD: converted to Humdrum by Bret Aarden
